X: 1
T: Hennigan's
R: jig
M: 6/8
L: 1/8
K: Amaj
ceA ceA|aga fed|ceA ceA|Bcd Bcd|
ceA ceA|aga fed|cde aec|1 ABA Aed:|2 ABA A2B||
|:cee fee|aee fed|cde aec|BcB BAB|
c2e fee|aee fed|cde aec|ABA A2B:|

